assets/icons/standard/work_plan_rule.svg

<svg xmlns="http://www.w3.org/2000/svg" width="100" height="100" viewBox="0 0 100 100"><path d="M39.3,32.1H60.7a2,2,0,0,0,2-2v-4a6,6,0,0,0-5.8-6H43.3a5.91,5.91,0,0,0-5.8,6v4A1.74,1.74,0,0,0,39.3,32.1Z" fill="#fff"/><path d="M71.4,25.2h-2a.94.94,0,0,0-1,1v4a7.9,7.9,0,0,1-7.8,7.9H39.3a7.9,7.9,0,0,1-7.8-7.9v-4a.94.94,0,0,0-1-1h-2a5.91,5.91,0,0,0-5.8,6V73.8a6,6,0,0,0,5.8,6H71.4a5.91,5.91,0,0,0,5.8-6V31.2A5.79,5.79,0,0,0,71.4,25.2ZM68.7,73a1.49,1.49,0,0,1-1.2,1.2H56.3c-.7,0-1-.8-.3-1.3l3.6-3.8-7-7H32.4a1.07,1.07,0,0,1-1-1V56.6a1.08,1.08,0,0,1,1-1H52.6l6.9-7L55.9,45c-.5-.6-.3-1.4.4-1.4H67.4a1.49,1.49,0,0,1,1.2,1.2V55.9c0,.7-.8,1-1.3.3l-3.6-3.5-6.2,6.2L63.7,65l3.6-3.6c.6-.5,1.4-.3,1.4.4Z" fill="#fff"/></svg>

<?xml version="1.0"?><svg xmlns="http://www.w3.org/2000/svg" width="100" height="100" viewBox="0 0 100 100"><title></title><path d="m39.3 32.1h21.4a2 2 0 0 0 2-2v-4a6 6 0 0 0-5.8-6h-13.6a5.9 5.9 0 0 0-5.8 6v4a1.7 1.7 0 0 0 1.8 2z m32.1-6.9h-2a0.9 0.9 0 0 0-1 1v4a7.9 7.9 0 0 1-7.8 7.9h-21.3a7.9 7.9 0 0 1-7.8-7.9v-4a0.9 0.9 0 0 0-1-1h-2a5.9 5.9 0 0 0-5.8 6v42.6a6 6 0 0 0 5.8 6h42.9a5.9 5.9 0 0 0 5.8-6v-42.6a5.8 5.8 0 0 0-5.8-6z m-2.7 47.8a1.5 1.5 0 0 1-1.2 1.2h-11.2c-0.7 0-1-0.8-0.3-1.3l3.6-3.8-7-7h-20.2a1.1 1.1 0 0 1-1-1v-4.5a1.1 1.1 0 0 1 1-1h20.2l6.9-7-3.6-3.6c-0.5-0.6-0.3-1.4 0.4-1.4h11.1a1.5 1.5 0 0 1 1.2 1.2v11.1c0 0.7-0.8 1-1.3 0.3l-3.6-3.5-6.2 6.2 6.2 6.1 3.6-3.6c0.6-0.5 1.4-0.3 1.4 0.4z" fill="#fff"></path></svg>
